X:164
T:Litha
M:3/4
C: Paul Gitlitz 2007
R:Waltz
K:D
A Bc|"D"d3c dc|"Bm"B3A Bc|"D"d3c dc|"Bm"B3A Bc|!
"D"dc de fg|"G"ab ag fe|"A7"df ad Bc |1"D"d3:|2"D"d3e fg|!
|"D"a3g fe|"G"g3f ed|"Bm"f3e dc|"A"d3A Bc|!
"D"dc de fg|"G"ab ag fe|"A7"df ad Bc |"D"d3e fg|! 
"D"a3g fe|"G"g3f ed|"Bm"f3e dc|"Bm"B4A2|!
"D"dc de fg|"G"ab ag fe|"A"df ad Bc |"D"d3|]
